polaris-icons/icons/newicons/ReferralMajor.svg

<svg width="20" height="20" viewBox="0 0 20 20" fill="none" xmlns="http://www.w3.org/2000/svg">
<path d="M3.5 7.46258C3.5 6.39805 4.39301 5.5 5.53846 5.5H11.3077C11.7219 5.5 12.0577 5.16421 12.0577 4.75C12.0577 4.33579 11.7219 4 11.3077 4H5.53846C3.60386 4 2 5.53088 2 7.46258V10.8321C2 12.5073 3.2063 13.8811 4.78846 14.2163L4.78846 16.3929C4.78846 16.6743 4.94606 16.9321 5.19659 17.0604C5.44711 17.1887 5.74839 17.1659 5.97679 17.0014L9.73498 14.2946H14.4615C16.3961 14.2946 18 12.7638 18 10.8321C18 10.4178 17.6642 10.0821 17.25 10.0821C16.8358 10.0821 16.5 10.4178 16.5 10.8321C16.5 11.8966 15.607 12.7946 14.4615 12.7946H9.49301C9.33568 12.7946 9.18234 12.8441 9.05468 12.9361L6.28846 14.9284V13.5446C6.28846 13.3457 6.20944 13.155 6.06879 13.0143C5.92814 12.8737 5.73737 12.7946 5.53846 12.7946C4.39301 12.7946 3.5 11.8966 3.5 10.8321V7.46258Z" fill="black"/>
<path d="M14.25 4C13.8358 4 13.5 4.33579 13.5 4.75C13.5 5.16421 13.8358 5.5 14.25 5.5L15.4393 5.5L12.2197 8.71967C11.9268 9.01256 11.9268 9.48744 12.2197 9.78033C12.5126 10.0732 12.9874 10.0732 13.2803 9.78033L16.5 6.56066L16.5 7.75C16.5 8.16421 16.8358 8.5 17.25 8.5C17.6642 8.5 18 8.16421 18 7.75L18 4.75C18 4.33579 17.6642 4 17.25 4H14.25Z" fill="black"/>
</svg>

<svg viewBox="0 0 20 20" fill="none" xmlns="http://www.w3.org/2000/svg"><path d="M3.5 7.463c0-1.065.893-1.963 2.038-1.963h5.77a.75.75 0 0 0 0-1.5h-5.77c-1.934 0-3.538 1.53-3.538 3.463v3.37c0 1.674 1.206 3.048 2.788 3.383v2.177a.75.75 0 0 0 1.189.608l3.758-2.706h4.726c1.935 0 3.539-1.531 3.539-3.463a.75.75 0 1 0-1.5 0c0 1.065-.893 1.963-2.039 1.963h-4.968a.75.75 0 0 0-.438.141l-2.767 1.992v-1.383a.75.75 0 0 0-.75-.75c-1.145 0-2.038-.898-2.038-1.963v-3.37Z" fill="#5C5F62"/><path d="M14.25 4a.75.75 0 0 0 0 1.5h1.19l-3.22 3.22a.75.75 0 0 0 1.06 1.06l3.22-3.22v1.19a.75.75 0 0 0 1.5 0v-3a.75.75 0 0 0-.75-.75h-3Z" fill="#5C5F62"/></svg>
